icon-themes/sifr_svg/cmd/sc_snappoints.svg

<svg viewBox="0 0 16 16" xmlns="http://www.w3.org/2000/svg"><path d="m6 1v2h2v-2zm3 0v2h3c1.1 0 2 .9 2 2s-.9 2-2 2h-3v2h3c2.2 0 4-1.8 4-4s-1.8-4-4-4zm-3 6v2h2v-2zm-2 4v1h-3v2h3v1h4v-4zm5 0v4h4v-1h3v-2h-3v-1z" fill="#555753"/></svg>

<svg xmlns="http://www.w3.org/2000/svg" viewBox="0 0 16 16">
  <path
     style="fill:#555753"
     d="M 6 1 L 6 3 L 8 3 L 8 1 L 6 1 z M 9 1 L 9 3 L 12 3 C 13.1 3 14 3.9 14 5 C 14 6.1 13.1 7 12 7 L 9 7 L 9 9 L 12 9 C 14.2 9 16 7.2 16 5 C 16 2.8 14.2 1 12 1 L 9 1 z M 6 7 L 6 9 L 8 9 L 8 7 L 6 7 z M 4 11 L 4 12 L 1 12 L 1 14 L 4 14 L 4 15 L 8 15 L 8 11 L 4 11 z M 9 11 L 9 15 L 13 15 L 13 14 L 16 14 L 16 12 L 13 12 L 13 11 L 9 11 z "
     />
</svg>
